build/img/Fastcar.svg

<svg width="54" height="54" viewBox="0 0 54 54" fill="none" xmlns="http://www.w3.org/2000/svg">
<path d="M43.6875 30.375H35.4375C35.2137 30.375 34.9991 30.2861 34.8409 30.1279C34.6826 29.9696 34.5938 29.755 34.5938 29.5312C34.5938 29.3075 34.6826 29.0929 34.8409 28.9346C34.9991 28.7764 35.2137 28.6875 35.4375 28.6875H43.6875C43.9113 28.6875 44.1259 28.7764 44.2841 28.9346C44.4423 29.0929 44.5312 29.3075 44.5312 29.5312C44.5312 29.755 44.4423 29.9696 44.2841 30.1279C44.1259 30.2861 43.9113 30.375 43.6875 30.375Z" fill="#E0E2E5"/>
<path d="M25.3125 19.4062L27 39.6562V41.3438H37.125V39.6562L38.8125 19.4062H25.3125Z" fill="#93573D"/>
<path d="M16.875 19.4062V18.5625H13.5V21.0938H10.125V29.5312H13.5H16.875V28.6875H20.25V19.4062H16.875Z" fill="#FDD14B"/>
<path d="M13.5 32.0625C13.2762 32.0625 13.0616 31.9736 12.9034 31.8154C12.7451 31.6571 12.6562 31.4425 12.6562 31.2188V21.9375C12.6562 21.7137 12.7451 21.4991 12.9034 21.3409C13.0616 21.1826 13.2762 21.0938 13.5 21.0938C13.7238 21.0938 13.9384 21.1826 14.0966 21.3409C14.2549 21.4991 14.3438 21.7137 14.3438 21.9375V31.2188C14.3438 31.4425 14.2549 31.6571 14.0966 31.8154C13.9384 31.9736 13.7238 32.0625 13.5 32.0625Z" fill="#E4BC43"/>
<path d="M16.9957 33.75C16.7733 33.75 16.5599 33.6622 16.4019 33.5057C16.2439 33.3492 16.1541 33.1366 16.1519 32.9142L16.0313 20.258C16.0292 20.0342 16.116 19.8188 16.2727 19.659C16.4295 19.4993 16.6432 19.4084 16.867 19.4062C17.0908 19.4041 17.3063 19.491 17.466 19.6477C17.6257 19.8044 17.7167 20.0182 17.7188 20.242L17.8393 32.8982C17.8415 33.122 17.7546 33.3374 17.598 33.4971C17.4413 33.6569 17.2276 33.7478 17.0038 33.75H16.9957Z" fill="#E4BC43"/>
<path d="M9.28125 27.8438L10.9688 39.6562V41.3438H21.0938V39.6562V27.8438H9.28125Z" fill="#E74444"/>
<path d="M48.9375 30.375H47.25C47.0262 30.375 46.8116 30.2861 46.6534 30.1279C46.4951 29.9696 46.4062 29.755 46.4062 29.5312C46.4062 29.3075 46.4951 29.0929 46.6534 28.9346C46.8116 28.7764 47.0262 28.6875 47.25 28.6875H48.9375C49.1613 28.6875 49.3759 28.7764 49.5341 28.9346C49.6924 29.0929 49.7812 29.3075 49.7812 29.5312C49.7812 29.755 49.6924 29.9696 49.5341 30.1279C49.3759 30.2861 49.1613 30.375 48.9375 30.375Z" fill="#E0E2E5"/>
<path d="M38.8125 19.4062L38.5309 22.7812H25.5941L25.3125 19.4062H38.8125Z" fill="#A4D4F4"/>
<path d="M23.6737 14.3437C23.521 14.3436 23.3712 14.302 23.2403 14.2235C23.1094 14.145 23.0022 14.0324 22.9302 13.8977C22.8583 13.7631 22.8242 13.6114 22.8316 13.4589C22.839 13.3064 22.8877 13.1588 22.9724 13.0318L23.774 11.8288C23.8936 11.6494 23.94 11.4309 23.9036 11.2184C23.8672 11.0058 23.7507 10.8153 23.5782 10.6859L22.7574 10.07C22.24 9.68164 21.891 9.10997 21.7819 8.47235C21.6728 7.83472 21.8119 7.17953 22.1706 6.64123L22.9722 5.43815C23.0337 5.34596 23.1127 5.26677 23.2048 5.20512C23.2968 5.14346 23.4001 5.10055 23.5088 5.07882C23.6175 5.05709 23.7293 5.05698 23.838 5.07849C23.9467 5.09999 24.0501 5.1427 24.1423 5.20417C24.2345 5.26564 24.3137 5.34466 24.3754 5.43673C24.437 5.5288 24.4799 5.63211 24.5017 5.74077C24.5234 5.84943 24.5235 5.9613 24.502 6.07C24.4805 6.1787 24.4378 6.2821 24.3763 6.37429L23.5744 7.57727C23.4548 7.75672 23.4085 7.97516 23.4449 8.18773C23.4813 8.40029 23.5977 8.59084 23.7703 8.72023L24.5911 9.33606C25.1086 9.72439 25.4577 10.296 25.5669 10.9337C25.6762 11.5713 25.5372 12.2266 25.1785 12.765L24.3769 13.968C24.2998 14.0838 24.1952 14.1787 24.0725 14.2443C23.9498 14.3098 23.8128 14.344 23.6737 14.3437Z" fill="#E0E2E5"/>
<path d="M16.9237 14.3438C16.771 14.3437 16.6212 14.3022 16.4903 14.2236C16.3594 14.1451 16.2522 14.0325 16.1802 13.8978C16.1083 13.7632 16.0742 13.6115 16.0816 13.4591C16.089 13.3066 16.1377 13.1589 16.2224 13.0319L17.024 11.8289C17.1436 11.6495 17.19 11.4311 17.1536 11.2185C17.1172 11.0059 17.0007 10.8154 16.8282 10.686L16.0074 10.0701C15.49 9.68177 15.141 9.11009 15.0319 8.47247C14.9228 7.83485 15.0619 7.17965 15.4206 6.64136L16.2222 5.43828C16.3463 5.25208 16.5394 5.12282 16.7588 5.07894C16.9782 5.03506 17.2061 5.08015 17.3923 5.20429C17.5785 5.32843 17.7078 5.52145 17.7517 5.7409C17.7955 5.96034 17.7504 6.18822 17.6263 6.37442L16.8244 7.57739C16.7048 7.75685 16.6585 7.97529 16.6949 8.18785C16.7313 8.40042 16.8477 8.59096 17.0203 8.72036L17.8411 9.33619C18.3586 9.72451 18.7077 10.2962 18.8169 10.9338C18.9262 11.5714 18.7872 12.2267 18.4285 12.7651L17.6269 13.9682C17.5498 14.0839 17.4452 14.1788 17.3225 14.2444C17.1998 14.3099 17.0628 14.3441 16.9237 14.3438Z" fill="#E0E2E5"/>
<path d="M30.3299 14.3437C30.1772 14.3436 30.0274 14.3021 29.8965 14.2235C29.7656 14.145 29.6584 14.0324 29.5865 13.8977C29.5145 13.7631 29.4804 13.6114 29.4878 13.4589C29.4952 13.3064 29.5439 13.1588 29.6286 13.0318L30.4307 11.8288C30.5503 11.6494 30.5967 11.4309 30.5603 11.2184C30.5238 11.0058 30.4074 10.8153 30.2349 10.6859L29.414 10.0701C28.8966 9.68182 28.5474 9.11018 28.4382 8.47254C28.329 7.8349 28.468 7.17964 28.8266 6.64125L29.6282 5.43817C29.7523 5.25189 29.9454 5.12255 30.1649 5.07861C30.2736 5.05686 30.3855 5.05672 30.4942 5.07821C30.603 5.0997 30.7064 5.1424 30.7986 5.20387C30.8909 5.26534 30.9701 5.34437 31.0318 5.43646C31.0935 5.52854 31.1364 5.63188 31.1582 5.74057C31.18 5.84925 31.1801 5.96116 31.1586 6.0699C31.1371 6.17863 31.0944 6.28207 31.0329 6.37431L30.2314 7.57729C30.1118 7.75673 30.0654 7.97516 30.1018 8.18772C30.1382 8.40029 30.2546 8.59084 30.4271 8.72025L31.248 9.33608C31.7655 9.72437 32.1146 10.296 32.2239 10.9337C32.3331 11.5713 32.1941 12.2266 31.8354 12.765L31.0338 13.9681C30.9566 14.0839 30.8519 14.1789 30.7291 14.2444C30.6063 14.31 30.4691 14.3441 30.3299 14.3437Z" fill="#E0E2E5"/>
<path d="M51.4688 25.3125H42.1875C41.9637 25.3125 41.7491 25.2236 41.5909 25.0654C41.4326 24.9071 41.3438 24.6925 41.3438 24.4688C41.3438 24.245 41.4326 24.0304 41.5909 23.8721C41.7491 23.7139 41.9637 23.625 42.1875 23.625H51.4688C51.6925 23.625 51.9071 23.7139 52.0654 23.8721C52.2236 24.0304 52.3125 24.245 52.3125 24.4688C52.3125 24.6925 52.2236 24.9071 52.0654 25.0654C51.9071 25.2236 51.6925 25.3125 51.4688 25.3125Z" fill="#E0E2E5"/>
<path d="M45.5625 35.4375H40.5C40.2762 35.4375 40.0616 35.3486 39.9034 35.1904C39.7451 35.0321 39.6562 34.8175 39.6562 34.5938C39.6562 34.37 39.7451 34.1554 39.9034 33.9971C40.0616 33.8389 40.2762 33.75 40.5 33.75H45.5625C45.7863 33.75 46.0009 33.8389 46.1591 33.9971C46.3174 34.1554 46.4062 34.37 46.4062 34.5938C46.4062 34.8175 46.3174 35.0321 46.1591 35.1904C46.0009 35.3486 45.7863 35.4375 45.5625 35.4375Z" fill="#E0E2E5"/>
<path d="M51.4688 48.9375H2.53125C2.30747 48.9375 2.09286 48.8486 1.93463 48.6904C1.77639 48.5321 1.6875 48.3175 1.6875 48.0938C1.6875 47.87 1.77639 47.6554 1.93463 47.4971C2.09286 47.3389 2.30747 47.25 2.53125 47.25H51.4688C51.6925 47.25 51.9071 47.3389 52.0654 47.4971C52.2236 47.6554 52.3125 47.87 52.3125 48.0938C52.3125 48.3175 52.2236 48.5321 52.0654 48.6904C51.9071 48.8486 51.6925 48.9375 51.4688 48.9375Z" fill="#C2C5C6"/>
<path d="M2.53125 39.6562H44.7188V41.3438C44.7188 41.7913 44.541 42.2205 44.2245 42.537C43.908 42.8535 43.4788 43.0312 43.0312 43.0312H4.21875C3.7712 43.0312 3.34197 42.8535 3.02551 42.537C2.70904 42.2205 2.53125 41.7913 2.53125 41.3438V39.6562Z" fill="#FDD14B"/>
<path d="M36.2812 48.0938C39.0772 48.0938 41.3438 45.8272 41.3438 43.0312C41.3438 40.2353 39.0772 37.9688 36.2812 37.9688C33.4853 37.9688 31.2188 40.2353 31.2188 43.0312C31.2188 45.8272 33.4853 48.0938 36.2812 48.0938Z" fill="#6A7073"/>
<path d="M36.2812 44.7188C37.2132 44.7188 37.9688 43.9632 37.9688 43.0312C37.9688 42.0993 37.2132 41.3438 36.2812 41.3438C35.3493 41.3438 34.5938 42.0993 34.5938 43.0312C34.5938 43.9632 35.3493 44.7188 36.2812 44.7188Z" fill="#99A2A7"/>
<path d="M10.9688 48.0938C13.7647 48.0938 16.0312 45.8272 16.0312 43.0312C16.0312 40.2353 13.7647 37.9688 10.9688 37.9688C8.17281 37.9688 5.90625 40.2353 5.90625 43.0312C5.90625 45.8272 8.17281 48.0938 10.9688 48.0938Z" fill="#6A7073"/>
<path d="M10.9688 44.7188C11.9007 44.7188 12.6562 43.9632 12.6562 43.0312C12.6562 42.0993 11.9007 41.3438 10.9688 41.3438C10.0368 41.3438 9.28125 42.0993 9.28125 43.0312C9.28125 43.9632 10.0368 44.7188 10.9688 44.7188Z" fill="#99A2A7"/>
<path d="M16.0312 36.2812H31.2188V37.9688C31.2188 38.4163 31.041 38.8455 30.7245 39.162C30.408 39.4785 29.9788 39.6562 29.5312 39.6562H17.7188C17.2712 39.6562 16.842 39.4785 16.5255 39.162C16.209 38.8455 16.0312 38.4163 16.0312 37.9688V36.2812Z" fill="#EA8333"/>
<path d="M30.5285 32.9062C31.3757 32.9062 32.0625 33.6617 32.0625 34.5938C32.0625 35.5258 31.3757 36.2812 30.5285 36.2812H16.7215C15.8743 36.2812 15.1875 35.5258 15.1875 34.5938C15.1875 33.6617 15.8743 32.9062 16.7215 32.9062H30.5285Z" fill="#794832"/>
<path d="M16.875 29.5312H30.375V32.9062H16.875V29.5312Z" fill="#FDD14B"/>
<path d="M32.9062 30.375C32.9062 31.773 31.719 32.9063 30.2544 32.9063C29.8221 32.9096 29.3953 32.8083 29.0104 32.6112C28.6256 32.4141 28.2941 32.1269 28.0441 31.774C27.7919 32.1243 27.46 32.4097 27.0759 32.6065C26.6917 32.8033 26.2662 32.9059 25.8346 32.9059C25.4029 32.9059 24.9775 32.8033 24.5933 32.6065C24.2091 32.4097 23.8772 32.1243 23.625 31.774C23.3728 32.1243 23.0409 32.4097 22.6567 32.6065C22.2725 32.8033 21.8471 32.9059 21.4154 32.9059C20.9838 32.9059 20.5583 32.8033 20.1741 32.6065C19.79 32.4097 19.4581 32.1243 19.2059 31.774C18.9559 32.1269 18.6244 32.4141 18.2395 32.6112C17.8547 32.8083 17.4279 32.9096 16.9956 32.9063C15.531 32.9063 14.3438 31.773 14.3438 30.375C14.3438 30.1512 14.4326 29.9366 14.5909 29.7784C14.7491 29.6201 14.9637 29.5312 15.1875 29.5312H32.0625C32.2863 29.5312 32.5009 29.6201 32.6591 29.7784C32.8174 29.9366 32.9062 30.1512 32.9062 30.375Z" fill="#3BA673"/>
<path d="M31.2188 22.7813V16.0313C31.2187 15.8626 31.2693 15.6979 31.3638 15.5582C31.4584 15.4186 31.5926 15.3105 31.7492 15.2478L35.9679 13.5603C36.0708 13.5192 36.1808 13.4987 36.2916 13.5001C36.4024 13.5014 36.5118 13.5246 36.6136 13.5682C36.7155 13.6119 36.8077 13.6752 36.8851 13.7545C36.9625 13.8338 37.0235 13.9275 37.0647 14.0304C37.1058 14.1333 37.1263 14.2433 37.125 14.3541C37.1236 14.4649 37.1004 14.5743 37.0568 14.6762C37.0131 14.778 36.9499 14.8703 36.8706 14.9476C36.7912 15.025 36.6975 15.086 36.5946 15.1272L32.9063 16.6025V22.7813H31.2188Z" fill="#E74444"/>
<path d="M31.2188 19.4062H32.9062V22.7812H31.2188V19.4062Z" fill="#CE3536"/>
</svg>

<svg width="54" height="54" fill="none" xmlns="http://www.w3.org/2000/svg"><path d="M43.688 30.375h-8.25a.844.844 0 110-1.688h8.25a.844.844 0 110 1.688z" fill="#E0E2E5"/><path d="M25.313 19.406L27 39.656v1.688h10.125v-1.688l1.688-20.25h-13.5z" fill="#93573D"/><path d="M16.875 19.406v-.843H13.5v2.53h-3.375v8.438h6.75v-.843h3.375v-9.282h-3.375z" fill="#FDD14B"/><path d="M13.5 32.063a.844.844 0 01-.844-.844v-9.282a.843.843 0 111.688 0v9.282a.844.844 0 01-.844.843zm3.496 1.687a.844.844 0 01-.844-.836l-.12-12.656a.844.844 0 011.687-.016l.12 12.656a.844.844 0 01-.835.852h-.008z" fill="#E4BC43"/><path d="M9.281 27.844l1.688 11.812v1.688h10.125v-13.5H9.28z" fill="#E74444"/><path d="M48.938 30.375H47.25a.844.844 0 110-1.688h1.688a.844.844 0 110 1.688z" fill="#E0E2E5"/><path d="M38.813 19.406l-.282 3.375H25.594l-.282-3.375h13.5z" fill="#A4D4F4"/><path d="M23.674 14.344a.844.844 0 01-.702-1.312l.802-1.203a.844.844 0 00-.196-1.143l-.82-.616a2.531 2.531 0 01-.587-3.429l.801-1.203a.844.844 0 011.404.936l-.802 1.203a.844.844 0 00.196 1.143l.821.616a2.531 2.531 0 01.587 3.429l-.801 1.203a.843.843 0 01-.703.376zm-6.75 0a.843.843 0 01-.702-1.312l.802-1.203a.844.844 0 00-.196-1.143l-.82-.616a2.531 2.531 0 01-.587-3.429l.801-1.203a.844.844 0 111.404.936l-.802 1.203a.844.844 0 00.196 1.143l.821.616a2.532 2.532 0 01.587 3.43l-.801 1.202a.844.844 0 01-.703.376zm13.406 0a.843.843 0 01-.701-1.312l.802-1.203a.844.844 0 00-.196-1.143l-.821-.616a2.532 2.532 0 01-.587-3.429l.801-1.203a.844.844 0 111.405.936l-.802 1.203a.844.844 0 00.196 1.143l.821.616a2.532 2.532 0 01.587 3.429l-.801 1.203a.843.843 0 01-.704.376zm21.139 10.969h-9.282a.844.844 0 110-1.688h9.282a.844.844 0 010 1.688zm-5.906 10.125H40.5a.844.844 0 110-1.688h5.063a.844.844 0 110 1.688z" fill="#E0E2E5"/><path d="M51.469 48.938H2.53a.844.844 0 010-1.688h48.94a.844.844 0 010 1.688z" fill="#C2C5C6"/><path d="M2.531 39.656H44.72v1.688a1.687 1.687 0 01-1.688 1.687H4.22a1.687 1.687 0 01-1.688-1.687v-1.688z" fill="#FDD14B"/><path d="M36.281 48.094a5.063 5.063 0 100-10.125 5.063 5.063 0 000 10.125z" fill="#6A7073"/><path d="M36.281 44.719a1.688 1.688 0 100-3.375 1.688 1.688 0 000 3.375z" fill="#99A2A7"/><path d="M10.969 48.094a5.062 5.062 0 100-10.125 5.062 5.062 0 000 10.125z" fill="#6A7073"/><path d="M10.969 44.719a1.688 1.688 0 100-3.375 1.688 1.688 0 000 3.375z" fill="#99A2A7"/><path d="M16.031 36.281H31.22v1.688a1.687 1.687 0 01-1.688 1.687H17.72a1.687 1.687 0 01-1.688-1.687V36.28z" fill="#EA8333"/><path d="M30.529 32.906c.847 0 1.534.756 1.534 1.688 0 .932-.687 1.687-1.535 1.687H16.723c-.848 0-1.535-.755-1.535-1.687s.687-1.688 1.534-1.688H30.53z" fill="#794832"/><path d="M16.875 29.531h13.5v3.375h-13.5v-3.375z" fill="#FDD14B"/><path d="M32.906 30.375c0 1.398-1.187 2.531-2.652 2.531a2.685 2.685 0 01-2.21-1.132 2.723 2.723 0 01-4.419 0 2.723 2.723 0 01-4.42 0 2.683 2.683 0 01-2.21 1.132c-1.464 0-2.651-1.133-2.651-2.531a.843.843 0 01.844-.844h16.874a.843.843 0 01.844.844z" fill="#3BA673"/><path d="M31.219 22.781v-6.75a.843.843 0 01.53-.783l4.219-1.688a.844.844 0 01.627 1.567l-3.689 1.475v6.18H31.22z" fill="#E74444"/><path d="M31.219 19.406h1.687v3.375H31.22v-3.375z" fill="#CE3536"/></svg>
